papirus/32x32/apps/rubymine.svg

<?xml version="1.0" encoding="UTF-8" standalone="no"?>
<!-- Created with Inkscape (http://www.inkscape.org/) -->

<svg
   xmlns:dc="http://purl.org/dc/elements/1.1/"
   xmlns:cc="http://creativecommons.org/ns#"
   xmlns:rdf="http://www.w3.org/1999/02/22-rdf-syntax-ns#"
   xmlns:svg="http://www.w3.org/2000/svg"
   xmlns="http://www.w3.org/2000/svg"
   xmlns:sodipodi="http://sodipodi.sourceforge.net/DTD/sodipodi-0.dtd"
   xmlns:inkscape="http://www.inkscape.org/namespaces/inkscape"
   id="svg4346"
   height="32"
   viewBox="0 0 32 32.000001"
   width="32"
   version="1.1"
   inkscape:version="0.91 r13725"
   sodipodi:docname="rubymine.svg">
  <defs
     id="defs13" />
  <sodipodi:namedview
     pagecolor="#ffffff"
     bordercolor="#666666"
     borderopacity="1"
     objecttolerance="10"
     gridtolerance="10"
     guidetolerance="10"
     inkscape:pageopacity="0"
     inkscape:pageshadow="2"
     inkscape:window-width="1600"
     inkscape:window-height="849"
     id="namedview11"
     showgrid="false"
     inkscape:zoom="1"
     inkscape:cx="27.405802"
     inkscape:cy="21.992064"
     inkscape:window-x="0"
     inkscape:window-y="0"
     inkscape:window-maximized="1"
     inkscape:current-layer="svg4346">
    <inkscape:grid
       type="xygrid"
       id="grid4154" />
  </sodipodi:namedview>
  <metadata
     id="metadata4351">
    <rdf:RDF>
      <cc:Work
         rdf:about="">
        <dc:format>image/svg+xml</dc:format>
        <dc:type
           rdf:resource="http://purl.org/dc/dcmitype/StillImage" />
        <dc:title></dc:title>
      </cc:Work>
    </rdf:RDF>
  </metadata>
  <rect
     id="rect4203"
     ry="1.4"
     rx="1.4"
     transform="matrix(0,-1,-1,0,0,0)"
     height="28"
     width="28"
     y="-30"
     x="-30"
     style="fill:#a24058;fill-opacity:1" />
  <path
     sodipodi:nodetypes="cszsc"
     inkscape:connector-curvature="0"
     id="path4310"
     d="m 7,24.971515 0,-10.8 c 0,-3.5 3.1,-4.2 4.5,-4.2 1.4,0 4.50021,0.6 4.50021,4.1 l 0,10.9"
     style="opacity:0.2;fill:none;fill-rule:evenodd;stroke:#000000;stroke-width:4;stroke-linecap:round;stroke-linejoin:round;stroke-miterlimit:4;stroke-dasharray:none;stroke-opacity:1" />
  <path
     style="fill:none;fill-rule:evenodd;stroke:#f58a1f;stroke-width:4;stroke-linecap:round;stroke-linejoin:round;stroke-miterlimit:4;stroke-dasharray:none;stroke-opacity:1"
     d="M 7,24 7,13.2 C 7,9.7 10.1,9 11.5,9 c 1.4,0 4.50021,0.6 4.50021,4.1 l 0,10.9"
     id="path4152"
     inkscape:connector-curvature="0"
     sodipodi:nodetypes="cszsc" />
  <path
     style="opacity:0.2;fill:none;fill-rule:evenodd;stroke:#000000;stroke-width:4;stroke-linecap:round;stroke-linejoin:round;stroke-miterlimit:4;stroke-dasharray:none;stroke-opacity:1"
     d="m 20,9.971515 c 1.4,0 3.99979,0.5 4,4 2.1e-4,3.5 -3,4.4 -3,4.4 l 3,6.6"
     id="path4312"
     inkscape:connector-curvature="0"
     sodipodi:nodetypes="czcc" />
  <path
     sodipodi:nodetypes="czcc"
     inkscape:connector-curvature="0"
     id="path4158"
     d="m 20,9 c 1.4,0 3.99979,0.5 4,4 2.1e-4,3.5 -3,4.4 -3,4.4 l 3,6.6"
     style="fill:none;fill-rule:evenodd;stroke:#ffffff;stroke-width:4;stroke-linecap:round;stroke-linejoin:round;stroke-miterlimit:4;stroke-dasharray:none;stroke-opacity:1" />
  <path
     style="fill:#ffffff;fill-opacity:1;opacity:0.2"
     d="M 3.4003906 2 C 2.6247906 2 2 2.6247906 2 3.4003906 L 2 4.4003906 C 2 3.6247906 2.6247906 3 3.4003906 3 L 28.599609 3 C 29.375209 3 30 3.6247906 30 4.4003906 L 30 3.4003906 C 30 2.6247906 29.375209 2 28.599609 2 L 3.4003906 2 z "
     id="rect4300" />
  <path
     style="fill:#000000;fill-opacity:1;opacity:0.3"
     d="M 2 27.599609 L 2 28.599609 C 2 29.375209 2.6247906 30 3.4003906 30 L 28.599609 30 C 29.375209 30 30 29.375209 30 28.599609 L 30 27.599609 C 30 28.375209 29.375209 29 28.599609 29 L 3.4003906 29 C 2.6247906 29 2 28.375209 2 27.599609 z "
     id="rect4305" />
</svg>

<?xml version="1.0" encoding="UTF-8" standalone="no"?>
<svg id="svg4346" xmlns:rdf="http://www.w3.org/1999/02/22-rdf-syntax-ns#" xmlns="http://www.w3.org/2000/svg" height="32" width="32" version="1.1" xmlns:cc="http://creativecommons.org/ns#" viewBox="0 0 32 32.000001" xmlns:dc="http://purl.org/dc/elements/1.1/">
 <metadata id="metadata4351">
  <rdf:RDF>
   <cc:Work rdf:about="">
    <dc:format>image/svg+xml</dc:format>
    <dc:type rdf:resource="http://purl.org/dc/dcmitype/StillImage"/>
    <dc:title/>
   </cc:Work>
  </rdf:RDF>
 </metadata>
 <rect id="rect4203" ry="1.4" rx="1.4" transform="matrix(0,-1,-1,0,0,0)" height="28" width="28" y="-30" x="-30" fill="#a24058"/>
 <path id="path4310" opacity=".2" stroke-linejoin="round" d="m7 24.972v-10.8c0-3.5 3.1-4.2 4.5-4.2s4.5002 0.6 4.5002 4.1v10.9" stroke="#000" stroke-linecap="round" stroke-width="4" fill="none"/>
 <path id="path4152" stroke-linejoin="round" d="m7 24v-10.8c0-3.5 3.1-4.2 4.5-4.2s4.5002 0.6 4.5002 4.1v10.9" stroke="#f58a1f" stroke-linecap="round" stroke-width="4" fill="none"/>
 <path id="path4312" opacity=".2" stroke-linejoin="round" d="m20 9.9715c1.4 0 3.9998 0.5 4 4 0.00021 3.5-3 4.4-3 4.4l3 6.6" stroke="#000" stroke-linecap="round" stroke-width="4" fill="none"/>
 <path id="path4158" stroke-linejoin="round" d="m20 9c1.4 0 3.9998 0.5 4 4 0.00021 3.5-3 4.4-3 4.4l3 6.6" stroke="#fff" stroke-linecap="round" stroke-width="4" fill="none"/>
 <path id="rect4300" opacity=".2" d="m3.4004 2c-0.7756 0-1.4004 0.6248-1.4004 1.4004v1c0-0.7756 0.6248-1.4004 1.4004-1.4004h25.2c0.775 0 1.4 0.6248 1.4 1.4004v-1c0-0.7756-0.625-1.4004-1.4-1.4004h-25.2z" fill="#fff"/>
 <path id="rect4305" opacity=".2" d="m2 28.6v1c0 0.775 0.6248 1.4 1.4004 1.4h25.2c0.775 0 1.4-0.625 1.4-1.4v-1c0 0.775-0.625 1.4-1.4 1.4h-25.2c-0.7752 0-1.4-0.625-1.4-1.4z"/>
</svg>
